X:1
T:Title
L:1/8
Q:1/4=92
M:2/4
K:Eb
V:1 treble nm="Grand Piano"
V:1
 C/C/G GG | GB/B/ G2 | FG FG | FE F2 | CG GG | GB G2 | FG FG/G/ | FE F2 | FF/G/ AA | FF/G/ AA | %10
w: ?????~????~???? * * * *||||||||||
 FG Ac | BA G2 | FF/G/ AA | FF/G/ AA | FG Ac | BB c/B/A/G/ | Gc cd | Bd c2 | Bc/c/ Bc | B/B/A G2 | %20
w: ||||||||||
 Gc cd | Bd c2 | B/B/c Bc | B/B/A G2 |] %24
w: ||||

